synths/sARB.svg

<svg width="42" height="42" viewBox="0 0 42 42" fill="none" xmlns="http://www.w3.org/2000/svg">
<g clip-path="url(#clip0_7277_57865)">
<mask id="mask0_7277_57865" style="mask-type:alpha" maskUnits="userSpaceOnUse" x="0" y="0" width="42" height="42">
<circle cx="21" cy="21" r="21" transform="matrix(-1 0 0 1 42 0)" fill="url(#paint0_linear_7277_57865)"/>
</mask>
<g mask="url(#mask0_7277_57865)">
<circle cx="21" cy="21" r="21" transform="matrix(-1 0 0 1 42 0)" fill="#34EDB3"/>
<circle cx="18.2" cy="18.2" r="18.2" transform="matrix(-1 0 0 1 39.2 2.80005)" fill="white"/>
</g>
<circle cx="16.1" cy="16.1" r="16.1" transform="matrix(-1 0 0 1 37.1 4.90002)" fill="#0B0B22"/>
<circle cx="20.9999" cy="21" r="16.1" fill="#2D374B"/>
<path d="M24.1349 19.8456L26.1617 16.4065L31.6249 24.9155L31.6274 26.548L31.6095 15.3112C31.6032 15.1756 31.5643 15.0436 31.4962 14.9263C31.428 14.8089 31.3327 14.7097 31.2181 14.6369L21.3825 8.97966C21.265 8.92382 21.1364 8.89515 21.0063 8.89576C20.8762 8.89637 20.7479 8.92626 20.6309 8.9832C20.6006 8.99842 20.5711 9.01543 20.5428 9.03414L20.5086 9.05577L10.9612 14.5882L10.9241 14.6049C10.8746 14.6278 10.8274 14.6553 10.7831 14.6871C10.604 14.815 10.482 15.0077 10.443 15.2242C10.437 15.2571 10.4329 15.2903 10.4308 15.3236L10.4457 24.4805L15.5344 16.5934C16.175 15.5476 17.5709 15.2107 18.8666 15.229L20.3874 15.2683L11.4264 29.639L12.4828 30.2471L21.5512 15.2827L25.5595 15.2681L16.5145 30.6096L20.2842 32.7791L20.7346 33.0381C20.9289 33.1153 21.1446 33.1196 21.3417 33.0501L31.3157 27.2701L29.4078 28.3751L24.1349 19.8456ZM24.9083 30.9833L21.1012 25.0082L23.425 21.0648L28.4248 28.9452L24.9083 30.9833Z" fill="#2D374B"/>
<path d="M21.1014 25.0082L24.9085 30.9831L28.4252 28.945L23.4257 21.0648L21.1014 25.0082Z" fill="#28A0F0"/>
<path d="M31.6278 26.5483L31.6252 24.9158L26.1621 16.4067L24.134 19.8454L29.408 28.3749L31.3158 27.2699C31.4082 27.195 31.4837 27.1015 31.5375 26.9955C31.5913 26.8894 31.6221 26.7732 31.628 26.6545L31.6278 26.5483Z" fill="#28A0F0"/>
<path d="M8.7345 28.0883L11.4273 29.64L20.3883 15.2693L18.8676 15.2299C17.5718 15.2117 16.1759 15.5484 15.5353 16.5944L10.4466 24.4815L8.73548 27.1117V28.0891L8.7345 28.0883Z" fill="white"/>
<path d="M25.5597 15.269L21.5517 15.2836L12.4833 30.2481L15.6529 32.0731L16.5147 30.6111L25.5597 15.269Z" fill="white"/>
<path d="M33.3165 15.2484C33.2981 14.8348 33.1794 14.4318 32.9707 14.0743C32.7619 13.7167 32.4693 13.4153 32.1181 13.196L22.1536 7.46578C21.7978 7.29097 21.4068 7.20007 21.0104 7.20007C20.6141 7.20007 20.223 7.29097 19.8673 7.46578C19.7841 7.50767 10.177 13.0796 10.177 13.0796C10.0435 13.1437 9.9158 13.2192 9.79538 13.3054C9.48343 13.5272 9.2258 13.8169 9.04185 14.1525C8.8579 14.4882 8.7524 14.8612 8.73328 15.2435V27.1112L10.4444 24.4809L10.4313 15.3244C10.4393 15.1988 10.475 15.0766 10.5359 14.9666C10.5968 14.8565 10.6814 14.7613 10.7835 14.6879C10.8288 14.6554 20.5999 8.99953 20.631 8.98399C20.748 8.92706 20.8763 8.89717 21.0064 8.89656C21.1365 8.89595 21.265 8.92462 21.3825 8.98045L31.2182 14.6381C31.3328 14.7109 31.4281 14.8101 31.4963 14.9275C31.5644 15.0448 31.6033 15.1768 31.6096 15.3124V26.6556C31.6073 26.7732 31.5798 26.889 31.5291 26.9951C31.4784 27.1013 31.4056 27.1953 31.3156 27.2711L29.4077 28.3761L28.4243 28.9464L24.9076 30.9845L21.341 33.0515C21.1439 33.121 20.9282 33.1168 20.7339 33.0395L16.5144 30.6126L15.6525 32.0743L19.4446 34.2576C19.5701 34.3288 19.6818 34.3921 19.7735 34.4436C19.9155 34.5223 20.0122 34.5764 20.0463 34.5929C20.3635 34.7319 20.7065 34.8025 21.0529 34.8C21.3706 34.8005 21.6855 34.7412 21.9813 34.6254L32.3401 28.6264C32.6324 28.3991 32.8712 28.1105 33.0398 27.7808C33.2085 27.4512 33.3028 27.0886 33.3161 26.7186L33.3165 15.2484Z" fill="#96BEDC"/>
</g>
<defs>
<linearGradient id="paint0_linear_7277_57865" x1="21" y1="0" x2="21" y2="61.4091" gradientUnits="userSpaceOnUse">
<stop stop-color="#08021E"/>
<stop offset="1" stop-color="#1F0777"/>
</linearGradient>
<clipPath id="clip0_7277_57865">
<rect width="42" height="42" fill="white"/>
</clipPath>
</defs>
</svg>

<svg xmlns="http://www.w3.org/2000/svg" width="42" height="42" fill="none"><g clip-path="url(#a)"><mask id="c" width="42" height="42" x="0" y="0" maskUnits="userSpaceOnUse" style="mask-type:alpha"><circle cx="21" cy="21" r="21" fill="url(#b)" transform="matrix(-1 0 0 1 42 0)"/></mask><g mask="url(#c)"><circle cx="21" cy="21" r="21" fill="#34EDB3" transform="matrix(-1 0 0 1 42 0)"/><circle cx="18.2" cy="18.2" r="18.2" fill="#fff" transform="matrix(-1 0 0 1 39.2 2.8)"/></g><circle cx="16.1" cy="16.1" r="16.1" fill="#0B0B22" transform="matrix(-1 0 0 1 37.1 4.9)"/><circle cx="21" cy="21" r="16.1" fill="#2D374B"/><path fill="#2D374B" d="m24.135 19.846 2.027-3.44 5.463 8.51.002 1.632-.017-11.237a.845.845 0 0 0-.392-.674L21.383 8.98a.867.867 0 0 0-.84.054l-.034.022-9.548 5.532-.037.017a.844.844 0 0 0-.493.719l.015 9.156 5.088-7.887c.641-1.045 2.037-1.382 3.333-1.364l1.52.04-8.96 14.37 1.056.608 9.068-14.964 4.009-.015-9.045 15.342 3.77 2.17.45.258c.194.077.41.082.607.012l9.974-5.78-1.908 1.105-5.273-8.53Zm.773 11.137-3.807-5.975 2.324-3.943 5 7.88-3.517 2.038Z"/><path fill="#28A0F0" d="m21.101 25.008 3.808 5.975 3.516-2.038-5-7.88-2.324 3.943ZM31.628 26.548l-.003-1.632-5.463-8.51-2.028 3.44 5.274 8.529 1.908-1.105a.846.846 0 0 0 .312-.616v-.106Z"/><path fill="#fff" d="m8.735 28.088 2.692 1.552 8.961-14.37-1.52-.04c-1.296-.018-2.692.318-3.333 1.364l-5.088 7.887-1.712 2.63v.978ZM25.56 15.269l-4.008.015-9.069 14.964 3.17 1.825.862-1.462L25.56 15.27Z"/><path fill="#96BEDC" d="M33.316 15.248a2.554 2.554 0 0 0-1.198-2.052l-9.964-5.73a2.592 2.592 0 0 0-2.287 0c-.083.042-9.69 5.614-9.69 5.614a2.557 2.557 0 0 0-1.135 1.072c-.184.336-.29.71-.309 1.091v11.868l1.711-2.63-.013-9.157a.85.85 0 0 1 .353-.636C10.829 14.655 20.6 9 20.63 8.984a.867.867 0 0 1 .752-.004l9.835 5.658a.846.846 0 0 1 .392.674v11.344a.825.825 0 0 1-.294.615l-1.908 1.105-.984.57-3.516 2.038-3.567 2.067a.865.865 0 0 1-.607-.012l-4.22-2.426-.861 1.461 3.792 2.184.328.186.273.149c.317.139.66.21 1.007.207.318 0 .633-.059.928-.175l10.36-5.999a2.53 2.53 0 0 0 .975-1.907v-11.47Z"/></g><defs><linearGradient id="b" x1="21" x2="21" y1="0" y2="61.409" gradientUnits="userSpaceOnUse"><stop stop-color="#08021E"/><stop offset="1" stop-color="#1F0777"/></linearGradient><clipPath id="a"><path fill="#fff" d="M0 0h42v42H0z"/></clipPath></defs></svg>
